assets/logo/logo.svg

<svg width="132" height="46" viewBox="0 0 132 46" fill="none" xmlns="http://www.w3.org/2000/svg">
<g clip-path="url(#clip0_304_59)">
<mask id="mask0_304_59" style="mask-type:luminance" maskUnits="userSpaceOnUse" x="0" y="0" width="132" height="46">
<path d="M131.309 0H0V46H131.309V0Z" fill="white"/>
</mask>
<g mask="url(#mask0_304_59)">
<path d="M54.9518 12.0439C56.8798 12.0439 58.5537 12.3618 59.9733 12.9974C61.4141 13.633 62.5158 14.5441 63.2786 15.7306C64.0414 16.9172 64.4228 18.3261 64.4228 19.9576C64.4228 21.5679 64.0414 22.9769 63.2786 24.1846C62.5158 25.3712 61.4141 26.2822 59.9733 26.9178C58.5537 27.5535 56.8798 27.8713 54.9518 27.8713H49.9302V34.2912H45.7986V12.0439H54.9518ZM54.7611 24.3753C56.562 24.3753 57.9286 23.9939 58.8609 23.2311C59.7932 22.4684 60.2593 21.3772 60.2593 19.9576C60.2593 18.5381 59.7932 17.4469 58.8609 16.6841C57.9286 15.9213 56.562 15.5399 54.7611 15.5399H49.9302V24.3753H54.7611ZM68.9669 12.0439H73.0985V30.7952H84.7307V34.2912H68.9669V12.0439ZM104.668 29.1426H93.5438L91.3509 34.2912H87.0921L97.1034 12.0439H101.172L111.215 34.2912H106.892L104.668 29.1426ZM103.301 25.9008L99.1057 16.1756L94.9422 25.9008H103.301ZM122.726 26.4411V34.2912H118.594V26.5047L109.854 12.0439H114.272L120.787 22.8815L127.366 12.0439H131.434L122.726 26.4411Z" fill="#111928"/>
<path d="M16.7273 39.309C25.9655 39.309 33.4545 31.82 33.4545 22.5818C33.4545 13.3435 25.9655 5.85449 16.7273 5.85449C7.48905 5.85449 0 13.3435 0 22.5818C0 31.82 7.48905 39.309 16.7273 39.309Z" fill="#3758F9"/>
</g>
<path d="M13.4691 10.1755C13.7824 10.2967 14.0522 10.5488 14.5916 11.053L26.3749 22.0676C24.389 22.1569 22.4284 22.5486 20.5606 23.2291L12.7444 15.8076C12.6821 15.7483 12.6022 15.7109 12.5168 15.7008C12.4314 15.6908 12.3451 15.7087 12.2707 15.7518C12.1963 15.7949 12.1378 15.8609 12.1041 15.94C12.0704 16.0191 12.0632 16.107 12.0835 16.1906L14.6314 26.6463C13.0998 27.9266 11.7733 29.434 10.6982 31.1159L7.07006 15.3913C6.90444 14.6729 6.82153 14.3136 6.87361 13.982C6.9194 13.6892 7.03942 13.413 7.22222 13.1797C7.42959 12.9155 7.74887 12.7312 8.38756 12.3624L11.3074 10.6767C11.9467 10.3076 12.2664 10.123 12.5993 10.0758C12.893 10.0341 13.1924 10.0685 13.4691 10.1755Z" fill="white"/>
<path d="M23.6989 26.0382C23.3594 26.9987 22.2466 28.1626 20.7048 29.0528C18.8124 30.1453 16.8863 30.4719 16.008 29.9226C16.1196 30.4636 16.3858 31.0026 16.5776 31.3348C16.5776 31.3348 17.4197 33.0222 19.208 33.5014C19.0448 33.2186 19.0006 32.8826 19.0851 32.5673C19.1696 32.252 19.3759 31.9832 19.6587 31.8199C20.6677 31.2374 21.1749 32.1183 21.5864 32.8332L21.6232 32.8968C22.2491 33.981 23.4482 34.5279 24.6167 34.3755C24.2993 34.1608 24.0349 33.8765 23.8438 33.5443C23.2468 32.5104 23.6316 31.7748 24.0789 30.9201C24.4345 30.24 24.8298 29.4843 24.8016 28.4426C24.7863 27.8816 24.6308 27.3333 24.3495 26.8477C24.1705 26.5377 23.9499 26.2669 23.6989 26.0382Z" fill="#C6CDEB"/>
</g>
<defs>
<clipPath id="clip0_304_59">
<rect width="132" height="46" fill="white"/>
</clipPath>
</defs>
</svg>

<svg xmlns="http://www.w3.org/2000/svg" width="132" height="46" fill="none"><g clip-path="url(#a)"><mask id="b" width="132" height="46" x="0" y="0" maskUnits="userSpaceOnUse" style="mask-type:luminance"><path fill="#fff" d="M131.309 0H0v46h131.309V0Z"/></mask><g mask="url(#b)"><path fill="#111928" d="M54.952 12.044c1.928 0 3.602.318 5.021.953 1.441.636 2.543 1.547 3.306 2.734.762 1.186 1.144 2.595 1.144 4.227 0 1.61-.382 3.019-1.144 4.227-.763 1.186-1.865 2.097-3.306 2.733-1.42.636-3.093.953-5.021.953H49.93v6.42H45.8V12.044h9.153Zm-.19 12.331c1.8 0 3.167-.381 4.099-1.144.932-.763 1.398-1.854 1.398-3.273 0-1.42-.466-2.511-1.398-3.274-.932-.763-2.299-1.144-4.1-1.144h-4.83v8.835h4.83Zm14.205-12.331h4.132v18.751H84.73v3.496H68.967V12.044Zm35.701 17.099H93.544L91.35 34.29h-4.259l10.011-22.247h4.069l10.043 22.247h-4.323l-2.224-5.148Zm-1.367-3.242-4.195-9.725-4.164 9.725h8.359Zm19.425.54v7.85h-4.132v-7.786l-8.74-14.461h4.418l6.515 10.837 6.579-10.837h4.068l-8.708 14.397Z"/><path fill="#3758F9" d="M16.727 39.309c9.238 0 16.728-7.489 16.728-16.727 0-9.239-7.49-16.728-16.728-16.728C7.49 5.854 0 13.344 0 22.582c0 9.238 7.489 16.727 16.727 16.727Z"/></g><path fill="#fff" d="M13.47 10.175c.312.122.582.374 1.122.878l11.783 11.015a19.55 19.55 0 0 0-5.814 1.161l-7.817-7.421a.398.398 0 0 0-.66.383l2.547 10.455a19.548 19.548 0 0 0-3.933 4.47L7.07 15.39c-.166-.718-.248-1.077-.196-1.409.045-.293.165-.569.348-.802.208-.264.527-.449 1.166-.818l2.92-1.685c.639-.37.958-.554 1.291-.601.294-.042.593-.008.87.1Z"/><path fill="#C6CDEB" d="M23.699 26.038c-.34.96-1.452 2.125-2.994 3.015-1.893 1.092-3.819 1.419-4.697.87.112.54.378 1.08.57 1.412 0 0 .842 1.687 2.63 2.166a1.231 1.231 0 0 1 .45-1.681c1.01-.583 1.517.298 1.928 1.013l.037.064a3.007 3.007 0 0 0 2.994 1.479 2.522 2.522 0 0 1-.773-.832c-.597-1.034-.212-1.77.235-2.624.355-.68.75-1.436.723-2.477a3.378 3.378 0 0 0-1.103-2.404Z"/></g><defs><clipPath id="a"><path fill="#fff" d="M0 0h132v46H0z"/></clipPath></defs></svg>
